lib/flags/m/BHS.svg

<svg xmlns="http://www.w3.org/2000/svg" fill="none" viewBox="0 0 20 15"><mask id="BHS_svg__a" width="20" height="15" x="0" y="0" maskUnits="userSpaceOnUse"><path fill="#fff" d="M0 0h20v15H0z"/></mask><g fill-rule="evenodd" clip-rule="evenodd" mask="url(#BHS_svg__a)"><path fill="#FECA00" d="M0 0h20v15H0V0z"/><path fill="#3CB1CF" d="M0 0v5h20V0H0zm0 10v5h20v-5H0z"/><path fill="#272727" d="M0 0l10 7.5L0 15V0z"/></g></svg>

<svg xmlns="http://www.w3.org/2000/svg" fill="none" viewBox="0 0 20 15"><mask id="BHS_svg__a" width="20" height="15" x="0" y="0" mask-type="alpha" maskUnits="userSpaceOnUse"><path fill="#fff" d="M0 0H20V15H0z"/></mask><g fill-rule="evenodd" clip-rule="evenodd" mask="url(#BHS_svg__a)"><path fill="#FECA00" d="M0 0H20V15H0V0Z"/><path fill="#3CB1CF" d="M0 0V5H20V0H0zM0 10V15H20V10H0z"/><path fill="#272727" d="M0 0L10 7.5L0 15V0Z"/></g></svg>
